X:13
T:score108
L:1/8
Q:1/4=96
M:9/8
I:linebreak $
K:Bmin
 .F | !>!B>FB d3 B3 | !>!d>Bd f3 d3 | !>!f>df a3 A3 |$ !>!d>Ad f3- f2 .A | !>!d>Ad f3 d3 | %6
 !>!f>df a3 f3 |$ !>!a>fa c'3 c3 | !>!f>cf ^a3- a2 z |] %9
